src/img/Union9.svg

<svg width="45.613770" height="51.990234" viewBox="0 0 45.6138 51.9902" fill="none" xmlns="http://www.w3.org/2000/svg" xmlns:xlink="http://www.w3.org/1999/xlink">
	<desc>
			Created with Pixso.
	</desc>
	<defs/>
	<path id="Union" d="M19.1406 6.46484C19.1406 10.0283 16.2393 12.9297 12.6753 12.9297C9.1123 12.9297 6.21045 10.0283 6.21045 6.46484C6.21045 2.90137 9.1123 0 12.6753 0C16.2393 0 19.1406 2.90137 19.1406 6.46484ZM17.8169 6.46484C17.8169 3.62793 15.5063 1.32422 12.6753 1.32422C9.83936 1.32422 7.53418 3.62793 7.53418 6.46484C7.53418 9.30176 9.83936 11.6055 12.6753 11.6055C15.5122 11.6055 17.8169 9.30176 17.8169 6.46484ZM34.7173 18.6621C37.814 18.6621 40.3311 16.1445 40.3311 13.0479C40.3311 9.95117 37.814 7.43359 34.7173 7.43359C31.6206 7.43359 29.1035 9.95117 29.1035 13.0479C29.1035 16.1445 31.6206 18.6621 34.7173 18.6621ZM34.7173 8.75781C37.0811 8.75781 39.0073 10.6787 39.0073 13.0479C39.0073 15.417 37.0869 17.3379 34.7173 17.3379C32.3477 17.3379 30.4272 15.417 30.4272 13.0479C30.4272 10.6787 32.3477 8.75781 34.7173 8.75781ZM44.5796 23.9502C43.8882 22.9346 42.9199 22.1543 41.7729 21.7051C39.5396 20.8428 37.1929 20.3994 34.7944 20.3994L34.7705 20.3994C32.3765 20.3994 30.0312 20.8428 27.791 21.7051C27.1934 21.9414 26.645 22.2656 26.1592 22.665C25.9238 22.8584 25.7031 23.0703 25.499 23.2979C25.4492 23.3525 25.4009 23.4092 25.3535 23.4658C25.1748 23.6807 25.0107 23.9102 24.8608 24.1514C24.6655 24.4648 24.7603 24.8721 25.0732 25.0674C25.1851 25.1387 25.3037 25.168 25.4219 25.168C25.5415 25.168 25.6597 25.1357 25.7612 25.0752C25.8081 25.0469 25.8521 25.0127 25.8916 24.9717C25.9263 24.9375 25.957 24.8984 25.9839 24.8545C26.5273 23.9805 27.3193 23.3184 28.2759 22.9404C30.3628 22.1367 32.5488 21.7285 34.7817 21.7227C37.0166 21.7227 39.2026 22.1309 41.2881 22.9404C42.1812 23.2949 42.9375 23.9033 43.481 24.6953C44.0244 25.4932 44.3086 26.4209 44.3086 27.3838L44.3086 38.5938C44.3086 38.7627 44.2817 38.9268 44.2324 39.082C44.1792 39.2451 44.1006 39.3984 43.999 39.5361C43.917 39.6475 43.8203 39.748 43.7095 39.8359C43.6704 39.8672 43.6299 39.8965 43.5869 39.9238C43.5181 39.9678 43.4453 40.0078 43.3691 40.041L41.7197 40.7744L32.1646 45.0352C31.9575 45.124 31.7451 45.1709 31.5205 45.1709C30.8936 45.1709 30.3267 44.8047 30.0728 44.2314C29.7417 43.4863 30.0312 42.6123 30.7285 42.2168C30.7769 42.2041 30.8257 42.1875 30.8706 42.166C30.9146 42.1445 30.9561 42.1182 30.9941 42.0859L40.7441 37.7373C40.9868 37.6309 41.1401 37.3945 41.1401 37.1279L41.1401 29.7949C41.1401 29.4287 40.8447 29.1328 40.479 29.1328C40.1133 29.1328 39.8174 29.4287 39.8174 29.7949L39.8174 36.6973L30.6167 40.7979C28.666 39.6104 26.3667 39.0078 23.7793 39.0078C21.9648 39.0078 20.2812 39.3096 18.7505 39.9062C18.4727 39.6338 18.1479 39.4043 17.7695 39.2383L6.59473 34.2559L6.59473 24.9199C6.59473 24.5527 6.29932 24.2578 5.93262 24.2578C5.82715 24.2578 5.72803 24.2822 5.64062 24.3262Q5.58838 24.3506 5.54346 24.3848C5.49268 24.4219 5.44775 24.4658 5.40967 24.5146C5.32324 24.626 5.271 24.7666 5.271 24.9199L5.271 34.6875C5.271 34.9482 5.4248 35.1904 5.66699 35.2969L17.2373 40.4551C18.23 40.8984 18.6792 42.0635 18.2358 43.0557C17.9175 43.7646 17.2144 44.2256 16.4341 44.2256C16.2808 44.2256 16.1309 44.207 15.9839 44.1719C15.8643 44.1436 15.7461 44.1045 15.6299 44.0537L14.9624 43.7588L14.9385 43.7461L14.9004 43.7295L14.8623 43.7109L2.5 38.1982C1.79004 37.8789 1.32959 37.1758 1.32959 36.3955L1.32959 22.585C1.32959 20.6592 2.48828 18.9453 4.27295 18.2188L4.93994 17.9463C7.39844 16.9951 9.98145 16.5166 12.6162 16.5166C15.2524 16.5166 17.834 17.001 20.2925 17.9463L20.9609 18.2188C22.0596 18.6621 22.9458 19.501 23.4536 20.5703C23.5137 20.6973 23.6084 20.7959 23.7217 20.8604C23.8232 20.918 23.9399 20.9482 24.0576 20.9482C24.0942 20.9482 24.1323 20.9463 24.1704 20.9395C24.228 20.9307 24.2861 20.9121 24.3403 20.8838C24.6714 20.7246 24.8135 20.3281 24.6602 19.9971C24.5664 19.7998 24.4639 19.6094 24.3516 19.4248C24.1924 19.165 24.0146 18.9189 23.8208 18.6875C23.1929 17.9414 22.3896 17.3545 21.4688 16.9834L20.7944 16.7119L20.7832 16.7119C18.1714 15.7012 15.4233 15.1875 12.6221 15.1875C9.8208 15.1875 7.07959 15.7012 4.46191 16.7119L4.44922 16.7119L3.77637 16.9834C2.65918 17.4385 1.70801 18.207 1.03418 19.2051C0.359863 20.2041 0 21.374 0 22.5791L0 36.3896C0 37.1709 0.276855 37.9082 0.755859 38.4893C1.07471 38.875 1.48193 39.1914 1.95654 39.4043L3.50391 40.0947L3.50391 51.3232C3.50391 51.6885 3.79932 51.9844 4.1665 51.9844C4.53223 51.9844 4.82764 51.6885 4.82764 51.3232L4.82764 40.6865L13.9575 44.7578L13.9575 51.3232C13.9575 51.5117 14.0356 51.6826 14.1626 51.8027C14.2817 51.916 14.4419 51.9844 14.6196 51.9844C14.7666 51.9844 14.9014 51.9365 15.0112 51.8564C15.1069 51.7861 15.1831 51.6914 15.229 51.5801C15.2627 51.501 15.2812 51.4141 15.2812 51.3232L15.2812 45.3428C15.4448 45.4033 15.6113 45.4492 15.7788 45.4824C15.9873 45.5234 16.1997 45.543 16.4155 45.543C17.7163 45.543 18.9043 44.7754 19.4302 43.5869C19.8022 42.748 19.7964 41.832 19.4834 41.04C19.9565 40.8682 20.4482 40.7275 20.9561 40.6182C21.8428 40.4268 22.7808 40.3311 23.7622 40.3311C25.8589 40.3311 27.7324 40.7627 29.3516 41.6133C28.5957 42.4414 28.3589 43.6758 28.8438 44.7637C29.085 45.3076 29.4819 45.751 29.9678 46.0508C30.2021 46.1963 30.4575 46.3076 30.7251 46.3828C30.9766 46.4521 31.2397 46.4883 31.5088 46.4883C31.7627 46.4883 32.0049 46.459 32.2476 46.3936L32.2476 51.3232C32.2476 51.6885 32.543 51.9844 32.9087 51.9844C33.2759 51.9844 33.5713 51.6885 33.5713 51.3232L33.5713 45.8389L41.3008 42.3936L41.3008 51.3164C41.3008 51.6826 41.5962 51.9785 41.9619 51.9785C42.3291 51.9785 42.6245 51.6826 42.6245 51.3164L42.6245 41.7969L43.8882 41.2354C44.9409 40.7686 45.6138 39.7227 45.6138 38.5762L45.6138 27.3662C45.6138 26.1377 45.248 24.9492 44.5566 23.9326L44.5796 23.9502ZM18.7969 32.0879C18.7969 34.8359 21.0303 37.0693 23.7783 37.0693C26.5264 37.0693 28.7593 34.8359 28.7593 32.0879C28.7593 29.3398 26.5264 27.1064 23.7783 27.1064C21.0303 27.1064 18.7969 29.3398 18.7969 32.0879ZM27.4243 32.0879C27.4243 34.1025 25.7876 35.7402 23.7725 35.7402C21.7573 35.7402 20.1206 34.1025 20.1206 32.0879C20.1206 30.0723 21.7573 28.4355 23.7725 28.4355C25.7876 28.4355 27.4243 30.0723 27.4243 32.0879ZM18.6538 46.9746C18.5796 47.0811 18.5371 47.2109 18.5371 47.3516L18.5371 51.3281C18.5371 51.6943 18.8325 51.9902 19.1982 51.9902C19.3105 51.9902 19.4155 51.9619 19.5078 51.9131C19.7178 51.8027 19.8608 51.583 19.8608 51.3281L19.8608 47.3516C19.8608 47.2021 19.8125 47.0654 19.7295 46.9551C19.6094 46.793 19.4165 46.6895 19.1982 46.6895C18.9722 46.6895 18.7734 46.8018 18.6538 46.9746ZM28.3462 46.6895C27.9805 46.6895 27.6851 46.9854 27.6851 47.3516L27.6851 51.3281C27.6851 51.6943 27.9805 51.9902 28.3462 51.9902C28.7134 51.9902 29.0088 51.6943 29.0088 51.3281L29.0088 47.3516C29.0088 46.9854 28.7134 46.6895 28.3462 46.6895Z" fill="#FFFFFF" fill-opacity="1.000000" fill-rule="evenodd"/>
</svg>

<svg width="45.614" height="51.99" fill="none" xmlns="http://www.w3.org/2000/svg"><path d="M19.14 6.465a6.474 6.474 0 0 1-6.465 6.465A6.474 6.474 0 0 1 6.21 6.465 6.474 6.474 0 0 1 12.675 0a6.474 6.474 0 0 1 6.466 6.465Zm-1.323 0c0-2.837-2.31-5.14-5.142-5.14a5.144 5.144 0 0 0-5.14 5.14 5.144 5.144 0 0 0 5.14 5.14 5.144 5.144 0 0 0 5.142-5.14Zm16.9 12.197a5.619 5.619 0 0 0 5.614-5.614 5.619 5.619 0 0 0-5.614-5.614 5.619 5.619 0 0 0-5.613 5.614 5.619 5.619 0 0 0 5.613 5.614Zm0-9.904a4.29 4.29 0 1 1 0 8.58 4.29 4.29 0 0 1 0-8.58ZM44.58 23.95a6.06 6.06 0 0 0-2.807-2.245 19.301 19.301 0 0 0-6.979-1.306h-.023c-2.395 0-4.74.444-6.98 1.306a6.093 6.093 0 0 0-2.438 1.76 6.141 6.141 0 0 0-.492.686.663.663 0 1 0 1.123.704 4.725 4.725 0 0 1 2.292-1.915 18.155 18.155 0 0 1 6.506-1.217c2.235 0 4.42.408 6.506 1.217a4.8 4.8 0 0 1 2.193 1.755c.543.798.828 1.726.828 2.689v11.21a1.6 1.6 0 0 1-.722 1.33 1.569 1.569 0 0 1-.218.117l-1.65.733-9.554 4.261c-.207.089-.42.136-.645.136a1.581 1.581 0 0 1-.792-2.954.804.804 0 0 0 .143-.051.588.588 0 0 0 .123-.08l9.75-4.349a.66.66 0 0 0 .396-.61v-7.332a.66.66 0 1 0-1.323 0v6.902l-9.2 4.1c-1.951-1.187-4.25-1.79-6.838-1.79-1.814 0-3.498.303-5.029.9a3.274 3.274 0 0 0-.98-.669L6.595 34.256V24.92a.66.66 0 0 0-.954-.594q-.053.025-.098.059a.66.66 0 0 0-.272.535v9.767c0 .261.154.503.396.61l11.57 5.158a1.97 1.97 0 1 1-1.607 3.599l-.668-.295-.024-.013-.038-.017-.038-.018L2.5 38.198a1.978 1.978 0 0 1-1.17-1.803v-13.81a4.702 4.702 0 0 1 2.943-4.366l.667-.273a21.19 21.19 0 0 1 7.676-1.43c2.636 0 5.218.485 7.677 1.43l.668.273a4.709 4.709 0 0 1 2.493 2.351.653.653 0 0 0 .604.378.641.641 0 0 0 .282-.064.673.673 0 0 0 .32-.887 6.167 6.167 0 0 0-.84-1.31 6.002 6.002 0 0 0-2.351-1.704l-.675-.271h-.01a22.536 22.536 0 0 0-8.162-1.524c-2.801 0-5.542.513-8.16 1.524h-.013l-.673.271a6.054 6.054 0 0 0-2.742 2.222A6.02 6.02 0 0 0 0 22.58v13.81c0 .782.277 1.52.756 2.1a3.32 3.32 0 0 0 1.2.915l1.548.69v11.23a.661.661 0 1 0 1.324 0V40.686l9.13 4.07v6.566a.658.658 0 0 0 .662.661.661.661 0 0 0 .661-.66v-5.981a3.262 3.262 0 0 0 1.135.2 3.3 3.3 0 0 0 3.014-1.956 3.29 3.29 0 0 0 .053-2.547c.473-.172.965-.313 1.473-.422a13.29 13.29 0 0 1 2.806-.287c2.097 0 3.97.432 5.59 1.282a2.917 2.917 0 0 0-.508 3.15c.241.545.638.988 1.124 1.288.234.145.49.257.757.332a2.948 2.948 0 0 0 1.523.01v4.93a.66.66 0 1 0 1.323 0V45.84l7.73-3.445v8.922a.66.66 0 1 0 1.323 0v-9.52l1.264-.56a2.908 2.908 0 0 0 1.726-2.66v-11.21a6.085 6.085 0 0 0-1.057-3.433l.023.017Zm-25.783 8.138a4.985 4.985 0 0 0 4.981 4.981 4.985 4.985 0 0 0 4.981-4.981 4.985 4.985 0 0 0-4.98-4.982 4.985 4.985 0 0 0-4.982 4.982Zm8.627 0a3.655 3.655 0 0 1-3.651 3.652 3.655 3.655 0 0 1-3.652-3.652 3.654 3.654 0 0 1 3.652-3.652 3.654 3.654 0 0 1 3.651 3.652Zm-8.77 14.887a.656.656 0 0 0-.117.377v3.976a.66.66 0 1 0 1.324 0v-3.976a.658.658 0 0 0-.663-.662.66.66 0 0 0-.544.285Zm9.692-.285a.66.66 0 0 0-.66.662v3.976a.66.66 0 1 0 1.323 0v-3.976a.661.661 0 0 0-.663-.662Z" fill="#FFF" fill-rule="evenodd"/></svg>
